!! "One Time [or Supremely Exalted]", Item 12 from Laurence Picken et al
!! "Music From the Tang Court" Vol. 4, Cambridge University Press
!! (Cambridge) 1987; pp. 36-37
!! NOTE: This file contains an amalgamation of four coordinated ms sources.
!! SGYR	JCYR	SSSTF	KF/HSFRK (manuscripts)
!! Lute	Zither	Mouth	Mouth
!!		Organ	Organ
**kern	**kern	**kern	**kern
*M4/2	*M4/2	*M4/2	*M4/2
=1	=1	=1	=1
4A	4A 4a	4a	4a
4d	4d 8dd	4d	4dd
.	8dd	.	.
{8F#	4e 4ee	8ff#	4ee
8E}	.	8ee	.
8D	4d 8dd	4dd	4dd
8d	8dd	.	.
{8c#	{4B 8cc#	8ccc	4b
8B}	8b}	8b	.
8A	4A 8a	4a	4a
8A	8a	.	.
{8c#	4B 4b	4b	4b
8B}	.	.	.
8D	4d 8dd	4dd	4dd
8d	8dd	.	.
=2	=2	=2	=2
4D	4d 4dd	4dd	4dd
8A	8dd	4a	4a
8A	8a	.	.
4F#	4D 4f#	4ff#	4ff#
{16G#	{16g#	4gg	4gg
16F#	16f#	.	.
8G#}	8g#}	.	.
{8c#	{4B 8cc#	8ccc	4b
8B}	8b}	8b	.
8AA	4A 8a	4a	4a
8A	8a	.	.
2A	2A 2a	2a	2a
=3	=3	=3	=3
{16G#	{4D 16g#	4gg	4gg
16F#	16f#	.	.
8G#}	8g#}	.	.
8G#	4D 8g#	4ff#	4ff#
{16G#	{16g#	.	.
16F#}	16f#}	.	.
{16G#	{4D 16g#	4gg	4gg
16F#	16f#	.	.
8G#}	8g#}	.	.
8A	4A 8a	4a	4a
8A	8a	.	.
{8c#	{4B 8cc#	8ccc	4b
8B}	8b}	8b	.
8A	4A 8a	4a	4a
8A	8a	.	.
{8c#	{4B 8cc#	4b	4b
8B}	8b}	.	.
8D	4d 8dd	4dd	4dd
8d	8dd	.	.
=4	=4	=4	=4
{8G#	4f# 4ff#	4ff#	4ff#
8F#}	.	.	.
4F#	4ff#	4ff#	4ff#
{8F#	4e 4ee	8ff#	4ee
8E}	.	8ff#	.
8D	4d 8dd	8ee	4dd
8d	8dd	16dd	.
.	.	32b	.
.	.	32a	.
{8F#	{4e 8ff#	32ff#	4ee
.	.	[32ee	.
.	.	8.ee]	.
8E}	8ee}	.	.
8D	4d 8dd	4dd	4dd
8d	8dd	.	.
2d	2d 2dd	2d	2dd
=5	=5	=5	=5
4c#	4B 4cc#	4ccc	4ccc
4B	4b	4b	4b
{16c#	{4B 16cc#	4ccc	4ccc
16B	16b	.	.
8c#}	8cc#}	.	.
8E	4e 8ee	4ee	4ee
8E	8ee	.	.
{8c#	{4B 8cc#	8ccc	4b
8B}	8b}	8b	.
8A	4A 8a	4a	4a
8A	8a	.	.
{16c#	{4B 16cc#	4ccc	4ccc
16B	16b	.	.
8c#}	8cc#}	.	.
8AA	4A 8a	4a	4a
8A	8a	.	.
=6	=6	=6	=6
4D	4D 4d	4dd	4dd
8d	8d	8.ff#	4ff#
{32F#	8f#	.	.
32E	.	.	.
16F#}	.	32ee	.
.	.	32dd	.
4A	4A 4a	4gg#	4a
8A	8a	4a	4gg
{32G#	{32g#	.	.
32F#	32f#	.	.
16G#}	16g#}	.	.
{8c#	{4B 8cc#	8ccc	4b
8B}	8b}	8b	.
8AA	4A 8a	4a	4a
8A	8a	.	.
2A	2A 2a	2a	2a
=7	=7	=7	=7
4D	4d 4dd	4dd	4dd
8d	8dd	4b	4b
{16c#	8b	.	.
16B}	.	.	.
4D	4d 4d	8dd	4dd
.	.	8b	.
8d	8dd	4ccc	4ccc
{32c#	{32cc#	.	.
32B	32b	.	.
16c#}	16cc#}	.	.
{8c#	{4B 8cc#	8ccc	4b
8B}	8b}	8b	.
8A	4A 8a	4a	4a
8A	8a	.	.
{16c#	{4B 16cc#	4ccc	4ccc
16B	16b	.	.
8c#]	8cc#}	.	.
8AA	4A 8a	8.a	4a
8A	8a	.	.
.	.	32gg	.
.	.	32ff#	.
=8	=8	=8	=8
{16G#	{4D 16g#	4gg	4gg
16F#	16f#	.	.
8G#}	8g#}	.	.
8G#	4D 8g#	4ff#	4ff#
{16G#	{16g#	.	.
16F#}	16f#}	.	.
{8F#	4e 4ee	8ff#	4ee
8E}	.	8ee	.
8D	4d 8dd	4dd	4dd
8d	8dd	.	.
{8G#	4f# 4ff#	8gg	8gg
8F#}	.	8ff#	8ff#
8E	4e 8ee	8.ee	4ee
8E	8ee	.	.
.	.	32b	.
.	.	32a	.
2E	2e 2ee	2ee	2ee
=9	=9	=9	=9
{8G#	4f# 4ff#	4ff#	4ff#
8F#}	.	.	.
8A	4a 8aa	4a	4a
8A	8aa	.	.
{8c#	{4B 8cc#	8ccc	4b
8B}	8b}	8b	.
{8AA	4A 8a	4a	4a
8A}	8a	.	.
{8G#	4f# 4ff#	8gg	8gg
8F#}	.	8ff#	8ff#
8E	4e 8ee	4ee	4ee
8E	8ee	.	.
{8G#	4f# 4ff#	32gg	4ff#
.	.	[32ff#	.
.	.	8.ff#]	.
8F#}	.	.	.
8A	4a 8aa	4a	4a
8A	8aa	.	.
=10	=10	=10	=10
{8c#	4B 4b	4b	4b
8B}	.	.	.
{16B	8b	32a	4ff#
.	.	[32ff#	.
16A}	.	8.ff#]	.
{32F#	8f#	.	.
32E	.	.	.
16F#}	.	.	.
{8F#	4D 4e	8ff#	4ee
8E}	.	8ee	.
8D	4D 8d	4dd	4dd
8d	16d	.	.
.	{32ee	.	.
.	32dd	.	.
{8F#	32cc#	32ff#	4ee
.	32a	[32ee	.
.	32f#	8.ee]	.
.	32e	.	.
8E}	8d}	.	.
8D	4d	4dd	4dd
8d	.	.	.
2d	2D 2d	2dd	2dd
====	====	====	====
*-	*-	*-	*-
